src/assets/filled/FolderMinus.svg

<?xml version="1.0" encoding="UTF-8"?>
<svg width="24" height="24" viewBox="0 0 24 24" xmlns="http://www.w3.org/2000/svg">
 <path d="m21.017 7.9918c0.3979 0.56658-0.0764 1.2582-0.7687 1.2582h-17.248c-0.55228 0-1-0.44772-1-1v-1.83c0-2.44 1.98-4.42 4.42-4.42h2.32c1.63 0 2.14 0.53 2.79 1.4l1.4 1.86c0.31 0.41 0.35 0.46 0.93 0.46h2.79c1.8046 0 3.4016 0.89709 4.3669 2.2718z"/>
 <path d="m21.983 11.746c-0.0019-0.551-0.4491-0.9966-1.0001-0.9966l-17.983 7e-4c-0.55227 0-0.99996 0.4477-0.99996 1v4.9c0 2.95 2.4 5.35 5.35 5.35h9.3c2.95 0 5.35-2.4 5.35-5.35l-0.0166-4.9041zm-7.5534 5.0041h-5c-0.42 0-0.75-0.33-0.75-0.75 0-0.41 0.33-0.75 0.75-0.75h5c0.41 0 0.75 0.34 0.75 0.75 0 0.42-0.34 0.75-0.75 0.75z"/>
</svg>

<svg width="24" height="24" viewBox="0 0 24 24"  xmlns="http://www.w3.org/2000/svg">
<path d="M21.0169 7.99175C21.4148 8.55833 20.9405 9.25 20.2482 9.25H3C2.44772 9.25 2 8.80228 2 8.25V6.42C2 3.98 3.98 2 6.42 2H8.74C10.37 2 10.88 2.53 11.53 3.4L12.93 5.26C13.24 5.67 13.28 5.72 13.86 5.72H16.65C18.4546 5.72 20.0516 6.61709 21.0169 7.99175Z" />
<path d="M21.9834 11.7459C21.9815 11.1949 21.5343 10.7493 20.9833 10.7493L2.99996 10.75C2.44769 10.75 2 11.1977 2 11.75V16.65C2 19.6 4.4 22 7.35 22H16.65C19.6 22 22 19.6 22 16.65L21.9834 11.7459ZM14.43 16.75H9.43C9.01 16.75 8.68 16.42 8.68 16C8.68 15.59 9.01 15.25 9.43 15.25H14.43C14.84 15.25 15.18 15.59 15.18 16C15.18 16.42 14.84 16.75 14.43 16.75Z" />
</svg>
